X:201
T:Jenny's Gone to Linton
M:4/4
L:1/8
K:A
|: "A"A2 c2 "E"c2 e2 | "A"a3a a2 e2 | "D"f2 e2 f2 g2 | "A"a4 a4 |
"A"A2 c2 c2 e2 | a4 a2 e2 | "D"f2 a2 "A"e2 c2 | "E"B4 "A"A4 :|
  |: "A"c2 e2 e2 a2 | "D"f2 d2 d2 f2 | "A"e2 c2 c2 e2 | "G"dcB2 B4 |
  "A"c2 e2 e2 a2 | "D"f2 d2 d2 f2 | "A"e2 a2 e2 c2 | "E7"B4 "A"A4 :|
